**kern	**silbe
*ICvox	*
=1	=1
*E:	*
*M4/4	*
*clefG2	*
1r	.
=2	=2
1r	.
=3	=3
1r	.
=4	=4
1r	.
=5	=5
1r	.
=6	=6
1r	.
=7	=7
1r	.
=8	=8
2r	.
4.r	.
8B	They
=9	=9
4c#	paved
8e	par-
8e	-a-
4f#	-dise
8f#	and
8f#	they
=10	=10
8c#	put
8c#	up
8e	a
[8f#	park-
8f#]	_
4e	-ing
[8F#	lot
=11	=11
2..F#]	_
8r	.
=12	=12
2r	.
4r	.
8e	With
8e	a
=13	=13
8B	pink
8c#	_
4e	ho-
4f#	-tel
8r	.
8c#	a
=14	=14
8e	bou-
8f#	-tique
8f#	and
[8e	a
8e]	_
[4.g#	swing-
=15	=15
8g#]	_
4f#	-ing
[8e	hot
4.e]	_
[8e	spot
=16	=16
2.e]	_
4r	.
=17	=17
4r	.
8b	Don't
8b	it
4cc#	al-
4cc#	-ways
=18	=18
8r	.
4b	seem
8b	to
8b	go
4.cc#	_
=19	=19
8r	.
8e	You
8a	don't
8g#	know
8f#	what
4e	you've
[8f#	got
=20	=20
8f#]	_
8f#	till
8e	it's
[8g#	gone
4g#]	_
8r	.
8B	They
=21	=21
4c#	paved
8e	par-
8e	-a-
4f#	-dise
8f#	and
8e	they
=22	=22
8r	.
8f#	put
8f#	up
8e	a
4g#	park-
8e	-ing
[8e	lot
=23	=23
1e_	_
=24	=24
2.e]	_
4r	.
=25	=25
1r	.
=26	=26
1r	.
=27	=27
8B	Took
8c#	all
8B	the
8e	trees
4f#	_
4r	.
=28	=28
8c#	Put
8c#	'em
8e	in
8e	a
4f#	tree
8e	_
[8e	mu-
=29	=29
8e]	_
4e	-se-
[8e	-um
4.e]	_
8r	.
=30	=30
2r	.
4r	.
8e	And
8e	they
=31	=31
8B	charged
8c#	_
8e	all
8e	the
8e	peo-
8f#	-ple
8r	.
8c#	a
=32	=32
8f#	dol-
8f#	-lar
8f#	and
8e	a
4.g#	half
[8e	just
=33	=33
8e]	_
4c#	to
[8e	see
8e]	_
[4.e	'em
=34	=34
4e]	_
4r	.
2r	.
=35	=35
4r	.
8b	Don't
8b	it
4cc#	al-
4cc#	-ways
=36	=36
8r	.
4b	seem
8b	to
8b	go
4.cc#	_
=37	=37
8r	.
8e	You
8a	don't
8g#	know
8f#	what
4e	you've
[8f#	got
=38	=38
8f#]	_
8e	till
8e	it's
[8e	gone
4e]	_
8r	.
8B	They
=39	=39
4c#	paved
8e	par-
8e	-a-
4f#	-dise
8f#	and
8e	they
=40	=40
8f#	put
4f#	up
8e	a
4.g#	park-
[8e	-ing
=41	=41
2e]	_
[2e	lot
=42	=42
1e_	_
=43	=43
4e]	_
4r	.
2r	.
=44	=44
1r	.
=45	=45
4c#	Hey
8e	farm-
8e	-er
4f#	farm-
8f#	-er
8r	.
=46	=46
8c#	put
8c#	a-
8e	-way
8e	that
4f#	D.
8e	D.
[8e	T.
=47	=47
8e]	_
8e	now
4r	.
2r	.
=48	=48
2r	.
4r	.
8e	Give
8e	me
=49	=49
8B	spots
8c#	_
8e	on
8e	my
8e	appl-
8f#	-es
8r	.
8c#	but
=50	=50
8f#	leave
8f#	me
8e	the
[8g#	birds
2g#_	_
=51	=51
8g#]	_
8e	and
8c#	the
[8e	bees
4e]	_
4r	.
=52	=52
8r	.
4ee	Please
8cc#	_
8b	_
4cc#	_
8cc#	Don't
=53	=53
4.b	_
8b	it
8b	al-
4b	-ways
8r	.
=54	=54
8r	.
4b	seem
8b	to
8b	go
4.cc#	_
=55	=55
8r	.
8e	You
8a	don't
8g#	know
8f#	what
4e	you've
[8f#	got
=56	=56
8f#]	_
8f#	till
8e	it's
[8g#	gone
4g#]	_
8r	.
8B	They
=57	=57
4c#	paved
8e	par-
8e	-a-
4f#	-dise
8f#	and
8e	they
=58	=58
8r	.
8f#	put
8f#	up
8e	a
4g#	park-
8e	-ing
[8e	lot
=59	=59
1e_	_
=60	=60
1e_	_
=61	=61
4e]	_
4r	.
2r	.
=62	=62
1r	.
=63	=63
1r	.
=64	=64
1r	.
=65	=65
1r	.
=66	=66
1r	.
=67	=67
1r	.
=68	=68
1r	.
=69	=69
1r	.
=70	=70
1r	.
=71	=71
1r	.
=72	=72
1r	.
=73	=73
1r	.
=74	=74
1r	.
=75	=75
1r	.
=76	=76
1r	.
=77	=77
1r	.
=78	=78
1r	.
=79	=79
1r	.
=80	=80
1r	.
=81	=81
4c#	Late
4e	last
4f#	night
8r	.
8c#	I
=82	=82
8c#	heard
4e	that
[8f#	screen
8f#]	_
4e	door
[8e	slam
=83	=83
2e]	_
2r	.
=84	=84
2r	.
4r	.
8e	And
8e	the
=85	=85
8B	big
8c#	_
8e	yell-
8e	-ow
8e	trac-
8f#	-tor
8f#	come
[8e	and
=86	=86
8e]	_
8.f#	pushed
8.e	a-
8f#	-round
8e	my
[4g#	house
=87	=87
8g#]	_
8f#	pushed
8g#	_
8f#	a-
8g#	-round
4f#	my
8g#	land
=88	=88
8f#	_
4.e	_
8.e	I
8.e	said
8r	.
=89	=89
4r	.
8b	Don't
8b	it
8b	al-
8b	-ways
8b	seem
[8b	to
=90	=90
8b]	_
8b	go
4a	_
4.r	.
8e	You
=91	=91
8a	don't
4a	know
[8a	what
8a]	_
4g#	you've
[8f#	got
=92	=92
8f#]	_
8f#	till
8e	it's
[8g#	gone
4g#]	_
8r	.
8B	They
=93	=93
4c#	paved
8e	par-
8e	-a-
4f#	-dise
8f#	and
8e	they
=94	=94
8f#	put
8f#	up
8e	a
[8g#	park-
4.g#]	_
[8e	-ing
=95	=95
4.e]	_
[8e	lot
2e_	_
=96	=96
1e_	_
=97	=97
4e]	_
4r	.
2r	.
=98	=98
1r	.
=99	=99
4c#	Late
4e	last
4f#	night
8r	.
8c#	I
=100	=100
8c#	heard
4e	that
[8f#	screen
8f#]	_
4e	door
[8e	slam
=101	=101
8e]	_
8e	a-
2e	-gain
4r	.
=102	=102
2r	.
4r	.
8e	And
8e	the
=103	=103
8B	big
8c#	_
8e	yell-
8e	-ow
8f#	ta-
8e	-xi
8f#	came
8e	and
=104	=104
8f#	took
8f#	a-
8f#	-way
[8g#	my
8g#]	_
4g#	old
[8g#	man
=105	=105
2g#_	_
8g#]	_
8r	.
8r	.
8f#	a-
=106	=106
2..g#	-gain
8r	.
=107	=107
4r	.
8b	Don't
8b	it
8b	al-
8b	-ways
[4b	seem
=108	=108
4.b]	_
8g#	to
8g#	go
8f#	_
4e	You
=109	=109
8a	don't
4a	know
4a	what
4a	you've
[8a	got
=110	=110
8a]	_
8a	till
8g#	it's
[8b	gone
4b]	_
8r	.
8B	They
=111	=111
4c#	paved
8e	par-
8e	-a-
4f#	-dise
8f#	and
8e	they
=112	=112
8f#	put
8f#	up
8e	a
[8g#	park-
4.g#]	_
[8e	-ing
=113	=113
8e]	_
[4.e	lot
2e]	_
=114	=114
2r	.
8r	.
4e	Oh
8e	They
=115	=115
4c#	pave
8e	par-
8e	-a-
4f#	-dise
8f#	and
8e	they
=116	=116
16f#	put
8f#	up
8.e	those
[8g#	park-
4.g#]	_
[8e	-ing
=117	=117
8e]	_
[4.e	lots
2e]	_
=118	=118
2r	.
4.r	.
8e	They
=119	=119
4c#	paved
8e	par-
8e	-a-
4f#	-dise
8f#	and
8e	they
=120	=120
8r	.
8f#	put
8f#	up
8e	a
8.g#	park-
[16e	-ing
4e]	_
=121	=121
2..g#	lot
8g#	they
=122	=122
8f#	put
8f#	up
8e	a
[8g#	park-
8g#]	_
8e	-ing
8e	lot
8e	They
=123	=123
8f#	put
8f#	up
8e	a
[8g#	park-
8g#]	_
4e	-ing
[8e	lot
=124	=124
2e]	_
2r	.
*-	*-
!!!ENC: Nathaniel Condit-Schultz